src/images/get-profit.svg

<svg xmlns="http://www.w3.org/2000/svg" width="80" height="80" viewBox="0 0 80 80" fill="none"><script xmlns=""/>
<g clip-path="url(#clip0_2725_2)">
<path fill-rule="evenodd" clip-rule="evenodd" d="M55.491 34.0018H71.6211C75.1411 34.0018 78.001 36.8609 78.001 40.3869V71.617C78.001 75.143 75.1411 78.002 71.6211 78.002H8.39087C4.86087 78.002 2.00098 75.143 2.00098 71.617V40.3869C2.00098 36.8609 4.86087 34.0018 8.39087 34.0018H24.511C22.301 30.8968 21.001 27.0998 21.001 23.0018C21.001 12.5157 29.511 4.00171 40.001 4.00171C50.491 4.00171 59.001 12.5157 59.001 23.0018C59.001 27.0998 57.701 30.8968 55.491 34.0018ZM27.041 34.0018H39.001V32.0018H38.001C36.671 32.0018 35.401 31.4748 34.461 30.5378C33.531 29.5998 33.001 28.3278 33.001 27.0018C33.001 25.6448 35.001 25.6448 35.001 27.0018C35.001 27.7978 35.3209 28.5608 35.8809 29.1228C36.4409 29.6858 37.201 30.0018 38.001 30.0018H42.001C42.801 30.0018 43.5611 29.6858 44.1211 29.1228C44.6811 28.5608 45.001 27.7978 45.001 27.0018V26.9998C45.001 25.3438 43.661 24.0018 42.001 24.0018H38.001C36.671 24.0018 35.401 23.4748 34.461 22.5378C33.531 21.5998 33.001 20.3278 33.001 19.0018C33.001 17.6758 33.531 16.4037 34.461 15.4657C35.401 14.5287 36.671 14.0017 38.001 14.0017H39.001V11.0017C39.001 10.4497 39.451 10.0017 40.001 10.0017C40.551 10.0017 41.001 10.4497 41.001 11.0017V14.0017H42.001C43.331 14.0017 44.601 14.5287 45.541 15.4657C46.471 16.4037 47.001 17.6758 47.001 19.0018C47.001 19.9448 46.001 20.0018 46.001 20.0018C45.741 20.0018 45.5011 19.9018 45.3211 19.7388C45.1611 19.5998 45.021 19.3878 45.001 19.0628V19.0018C45.001 18.2058 44.6811 17.4428 44.1211 16.8808C43.5611 16.3178 42.801 16.0018 42.001 16.0018H38.001C37.201 16.0018 36.4409 16.3178 35.8809 16.8808C35.3209 17.4428 35.001 18.2058 35.001 19.0018C35.001 19.7978 35.3209 20.5608 35.8809 21.1228C36.4409 21.6858 37.201 22.0018 38.001 22.0018H42.001C44.761 22.0018 47.001 24.2398 47.001 26.9998V27.0018C47.001 28.3278 46.471 29.5998 45.541 30.5378C44.601 31.4748 43.331 32.0018 42.001 32.0018H41.001V34.0018H52.961C55.481 31.0358 57.001 27.1948 57.001 23.0018C57.001 13.6187 49.381 6.00172 40.001 6.00172C30.621 6.00172 23.001 13.6187 23.001 23.0018C23.001 27.1948 24.521 31.0358 27.041 34.0018ZM76.001 40.3869C76.001 37.9649 74.0411 36.0018 71.6211 36.0018H8.39087C5.96087 36.0018 4.00098 37.9649 4.00098 40.3869V71.617C4.00098 74.039 5.96087 76.002 8.39087 76.002H71.6211C74.0411 76.002 76.001 74.039 76.001 71.617V40.3869ZM56.501 56.0019C60.091 56.0019 63.001 58.9149 63.001 62.5019C63.001 66.089 60.091 69.002 56.501 69.002C52.911 69.002 50.001 66.089 50.001 62.5019C50.001 58.9149 52.911 56.0019 56.501 56.0019ZM56.501 58.0019C54.021 58.0019 52.001 60.0179 52.001 62.5019C52.001 64.986 54.021 67.002 56.501 67.002C58.981 67.002 61.001 64.986 61.001 62.5019C61.001 60.0179 58.981 58.0019 56.501 58.0019ZM39.501 43.0019C43.091 43.0019 46.001 45.9149 46.001 49.5019C46.001 53.0889 43.091 56.0019 39.501 56.0019C35.911 56.0019 33.001 53.0889 33.001 49.5019C33.001 45.9149 35.911 43.0019 39.501 43.0019ZM39.501 45.0019C37.021 45.0019 35.001 47.0179 35.001 49.5019C35.001 51.9859 37.021 54.0019 39.501 54.0019C41.981 54.0019 44.001 51.9859 44.001 49.5019C44.001 47.0179 41.981 45.0019 39.501 45.0019ZM22.001 57.0019H17.001C16.451 57.0019 16.001 56.5539 16.001 56.0019C16.001 55.4499 16.451 55.0019 17.001 55.0019H22.001V50.0019C22.001 49.4499 22.451 49.0019 23.001 49.0019C23.551 49.0019 24.001 49.4499 24.001 50.0019V55.0019H29.001C29.551 55.0019 30.001 55.4499 30.001 56.0019C30.001 56.5539 29.551 57.0019 29.001 57.0019H24.001V62.0019C24.001 62.5539 23.551 63.0019 23.001 63.0019C22.451 63.0019 22.001 62.5539 22.001 62.0019V57.0019ZM36.711 68.709C36.321 69.099 35.681 69.099 35.291 68.709C34.901 68.319 34.901 67.685 35.291 67.295L58.2911 44.2949C58.6811 43.9049 59.321 43.9049 59.711 44.2949C60.101 44.6849 60.101 45.3189 59.711 45.7089L36.711 68.709Z" fill="url(#paint0_linear_2725_2)"/>
</g>
<defs>
<linearGradient id="paint0_linear_2725_2" x1="70.001" y1="60.0019" x2="23.1616" y2="20.0019" gradientUnits="userSpaceOnUse">
<stop stop-color="#0054FA"/>
<stop offset="1" stop-color="#0099FA"/>
</linearGradient>
<clipPath id="clip0_2725_2">
<rect width="80" height="80" fill="white"/>
</clipPath>
</defs>
<script xmlns=""/></svg>

<svg xmlns="http://www.w3.org/2000/svg" width="80" height="80" fill="none"><script/><g clip-path="url(#a)"><path fill-rule="evenodd" clip-rule="evenodd" d="M55.491 34.002h16.13c3.52 0 6.38 2.859 6.38 6.385v31.23a6.385 6.385 0 0 1-6.38 6.385H8.391A6.387 6.387 0 0 1 2 71.617v-31.23a6.387 6.387 0 0 1 6.39-6.385h16.12a18.907 18.907 0 0 1-3.51-11c0-10.486 8.51-19 19-19s19 8.514 19 19c0 4.098-1.3 7.895-3.51 11zm-28.45 0h11.96v-2h-1a5.01 5.01 0 0 1-3.54-1.464 5.03 5.03 0 0 1-1.46-3.536c0-1.357 2-1.357 2 0 0 .796.32 1.559.88 2.12.56.564 1.32.88 2.12.88h4c.8 0 1.56-.316 2.12-.88a3.01 3.01 0 0 0 .88-2.12V27a2.997 2.997 0 0 0-3-2.998h-4a5.01 5.01 0 0 1-3.54-1.464 5.03 5.03 0 0 1-1.46-3.536 5.03 5.03 0 0 1 1.46-3.536 5.01 5.01 0 0 1 3.54-1.464h1v-3c0-.552.45-1 1-1s1 .448 1 1v3h1c1.33 0 2.6.527 3.54 1.464a5.03 5.03 0 0 1 1.46 3.536c0 .943-1 1-1 1-.26 0-.5-.1-.68-.263a.934.934 0 0 1-.32-.676v-.061a3.01 3.01 0 0 0-.88-2.121 2.984 2.984 0 0 0-2.12-.88h-4c-.8 0-1.56.317-2.12.88A3.01 3.01 0 0 0 35 19c0 .797.32 1.56.88 2.122.56.563 1.32.879 2.12.879h4a5 5 0 0 1 5 4.998v.002a5.03 5.03 0 0 1-1.46 3.536 5.01 5.01 0 0 1-3.54 1.464h-1v2h11.96a16.933 16.933 0 0 0 4.04-11c0-9.383-7.62-17-17-17-9.38 0-17 7.617-17 17 0 4.193 1.52 8.034 4.04 11zm48.96 6.385a4.382 4.382 0 0 0-4.38-4.385H8.391A4.384 4.384 0 0 0 4 40.387v31.23a4.384 4.384 0 0 0 4.39 4.385h63.23c2.42 0 4.38-1.963 4.38-4.385v-31.23zm-19.5 15.615c3.59 0 6.5 2.913 6.5 6.5s-2.91 6.5-6.5 6.5-6.5-2.913-6.5-6.5 2.91-6.5 6.5-6.5zm0 2c-2.48 0-4.5 2.016-4.5 4.5s2.02 4.5 4.5 4.5 4.5-2.016 4.5-4.5-2.02-4.5-4.5-4.5zm-17-15c3.59 0 6.5 2.913 6.5 6.5s-2.91 6.5-6.5 6.5-6.5-2.913-6.5-6.5 2.91-6.5 6.5-6.5zm0 2c-2.48 0-4.5 2.016-4.5 4.5s2.02 4.5 4.5 4.5 4.5-2.016 4.5-4.5-2.02-4.5-4.5-4.5zm-17.5 12h-5c-.55 0-1-.448-1-1s.45-1 1-1h5v-5c0-.552.45-1 1-1s1 .448 1 1v5h5c.55 0 1 .448 1 1s-.45 1-1 1h-5v5c0 .552-.45 1-1 1s-1-.448-1-1v-5zm14.71 11.707c-.39.39-1.03.39-1.42 0a1 1 0 0 1 0-1.414l23-23c.39-.39 1.03-.39 1.42 0a1 1 0 0 1 0 1.414l-23 23z" fill="url(#b)"/></g><defs><linearGradient id="b" x1="70.001" y1="60.002" x2="23.162" y2="20.002" gradientUnits="userSpaceOnUse"><stop stop-color="#0054FA"/><stop offset="1" stop-color="#0099FA"/></linearGradient><clipPath id="a"><path fill="#fff" d="M0 0h80v80H0z"/></clipPath></defs><script/></svg>
